X:1
T:Dovakhiin (Skyrim)
T:Dovahkiin (Skyrim)
T:Jeremy Soule 
T:Ludvig Kratzert
%%score ( 1 2 ) 3 ( 4 5 )
L:1/8
Q:1/4=100
M:12/8
K:D
V:1 treble nm="Sopran" snm="S."
V:2 treble 
V:3 treble nm="Alt" snm="A."
V:4 bass nm="TB" snm="TB"
V:5 bass 
V:1
 z12 | z12 | z12 | z12 | z12 | z12 | B6 e6 | B6 A6 | B6 B6 | B6 c3 z2 d/c/ | %10
w: ||||||Do- vah-|kiin lo!|Do- vah-|kiin lo! Do- vah-|
 d2 d/e/ f2 f/f/ edc B2 B/c/ | d2 d/e/ f2 f/f/ edc B2 B/c/ | dde f2 f/f/ edc B2 B/c/ | %13
w: kiin, Do- vah- kiin, naal ok zin los vah- riin, Wah _|dein vo- * kul mah- faer- ak _ ahst vaal! Ahrk fin|no- rok paal gran fod nust hon zin- dro zaan, Do- vah-|
 d3 d3 eee f3 | %14
w: kiin hiin ga- an mu draal!|
"^Lyrics: Nok dovah-kiin-i, nok dovah-kiin-i, nok dovah-kiin-i..." ff/f/f/f/ ee/e/e/e/ dd/d/d/d/ cc/c/c/c/ | %15
w: |
 ff/f/f/f/ ee/e/e/e/ dd/d/d/d/ cc/c/c/c/ | ff/f/f/f/ ee/e/e/e/ dd/d/d/d/ cc/c/c/c/ | %17
w: ||
 ff/f/f/f/ ff/f/f/f/ gg/g/g/g/ gg/g/g/g/ | z12 | z12 | e e2 f3 z ee eee | f6 g6 | z12 | z12 | d12 | %25
w: |||Huz- rah nu kul do o- od ahrk|fin gein!|||Oo|
 c12 | d3 c3 d3 e3- | e3 f6 e3 | d12 | c12 | d3 e3 f6 | e6 f6 | %32
w: _|||||||
"^Lyrics: Nok dovah-kiin-i, nok dovah-kiin-i..." ff/f/f/f/ ee/e/e/e/ dd/d/d/d/ cc/c/c/c/ | %33
w: |
 ff/f/f/f/ ee/e/e/e/ dd/d/d/d/ cc/c/c/c/ | ff/f/f/f/ ee/e/e/e/ dd/d/d/d/ cc/c/c/c/ | %35
w: ||
 ff/f/f/f/ ff/f/f/f/ gg/g/g/g/ gg/g/g/g/ | d12 | c6 f3 g3 | f6- f6 | e12 | f12 | g6 e4 z d/c/ | %42
w: |Oo|_ _ _||||* * Do- vah-|
 d2 d/e/ f2 f/f/ edc B2 B/c/ | d2 d/e/ f2 f/f/ edc B2 B/c/ | dde f2 f/f/ edc B2 B/c/ | %45
w: kiin, Do- vah- kiin, naal ok zin los vah- riin, Wah _|dein, vo- * kul mah- faer- a- ak ahst vaal! Ahrk fin|no- rok paal graan fod nust hon zin- dro zaan Do- vah-|
 d3 d3 eee f3 | B3 B3 B3 F3 | B3 B3 B3 F3 |] %48
w: kiin hin ga- an mu draal!|Do- va- khiin Rah!|Do- va- khiin Rah!|
V:2
 x12 | x12 | x12 | x12 | x12 | x12 | x12 | x12 | x12 | x12 | x12 | x12 | x12 | x12 | x12 | x12 | %16
 x12 | x12 | x12 | x12 | x12 | x12 | x12 | x12 | d3 c3 B6 | c6 A6 | d3 c3 d6- | d12 | d3 c3 B6 | %29
 c6 A6 | d12 | B6 c6 | x12 | x12 | x12 | x12 | x12 | x12 | x12 | x12 | x12 | x12 | x12 | x12 | %44
 x12 | x12 | x12 | x12 |] %48
V:3
 z12 | z12 | B,B,B, B,B,B, B,B,B, B,B,C/D/ | B,B,B, B,B,B, B,B,B, B,B,C/D/ | %4
w: ||Naal ok zin los vah- riin naal ok zin los vah Do vah|Naal ok zin los vah- riin naal ok zin los vah Do vah|
 B,B,B, B,B,B, B,B,B, B,B,C/D/ | B,B,B, B,B,B, B,B,B, B,B,C/D/ | B,B,B, B,B,B, EEE EEE | %7
w: Naal ok zin los vah- riin naal ok zin los vah Do vah|Naal ok zin los vah- riin naal ok zin los vah Do vah|Naal ok zin los vah- riin naal ok zin los vah- riin|
 DDD DDD CCC CCC | B,B,B, B,B,B, EEE EEE | DDD DDD CCC C z D/C/ | D2 D/E/ F2 F/F/ EDC B,2 B,/C/ | %11
w: Naal ok zin los vah- riin naal ok zin los vah- riin|Naal ok zin los vah- riin naal ok zin los vah- riin|Naal ok zin los vah- riin naal ok zin los Do- vah-|kiin, Do- vah- kiin, naal ok zin los vah- riin, Wah _|
 D2 D/E/ F2 F/F/ EDC B,2 B,/C/ | DDE F2 F/F/ EDC B,2 B,/C/ | D3 D3 EEE F3 | z3 z B,C D4 DE | %15
w: dein vo- * kul mah- faer- ak _ ahst vaal! Ahrk fin|no- rok paal gran fod nust hon zin- dro zaan, Do- vah-|kiin hiin ga- an mu draal!|Nuz aan sul, fent a-|
 F4 FA E4 DC | B,4 B,C D4 FA | B4 Ac B6 | z B2 z B2 z B2- B B2 | z B2 z B2 z B2- B B2 | %20
w: lok, fod fin vul do- vah|nok, fen kos nahl nol bein|Al- du- in jot!|rah u kul _ od|aan ok ling _ od|
 z B2 z B2 z B2- B B2 | B6 B6 | z12 | z12 | B12 | A12 | B12 | A6 c6 | B12 | A12 | B12 | G6 ^A6 | %32
w: rah u kul _ od|fin gein!|||Oo|_|||||||
 B,B,B, B,B,B, B,B,B, B,B,C/D/ | B,B,B, B,B,B, B,B,B, B,B,C/D/ | %34
w: Naal ok zin los vah- riin naal ok zin los vah Do va|Naal ok zin los vah- riin naal ok zin los vah Do va|
"^Text: Nok dovah-kiin-i, nok dovah-kiin-i, nok dovah-kiin-i..." FF/F/F/F/ EE/E/E/E/ DD/D/D/D/ CC/C/C/C/ | %35
w: |
 FF/F/F/F/ FF/F/F/F/ GG/G/G/G/ GG/G/G/G/ | D4 DE F4 FA | E4 DC B,4 B,C | D3 D2 E F3 F2 A | %39
w: |sul, fent a- lok, fod fin|vul do- vah nok, Fen kos|nah- lot mah- fae- raak ahrk|
 B6- B4 Bc | d2 c2 B2 A2 G2 F2 | E4 DF E4 z D/C/ | D2 D/E/ F2 F/F/ EDC B,2 B,/C/ | %43
w: ruz! _ Paaz kei-|zaal fen kos stin nol bein|Al- du- in jot! Do- vah-|kiin, Do- vah- kiin, naal ok zin los vah- riin, Wah _|
 D2 D/E/ F2 F/F/ EDC B,2 B,/C/ | DDE F2 F/F/ EDC B,2 B,/C/ | D3 D3 EEE F3 | B3 B3 B3 F3 | %47
w: dein, vo- * kul mah- faer- a- ak ahst vaal! Ahrk fin|no- rok paal graan fod nust hon zin- dro zaan Do- vah-|kiin hin ga- an mu draal!|Do- va- khiin Rah!|
 B3 B3 B3 F3 |] %48
w: Do- va- khiin Rah!|
V:4
 z12 | z12 | B,,3 G,,3 A,,6 | B,,3 G,,3 A,,6 | B,,3 G,,3 A,,6 | B,,3 G,,3 A,,6 | F,6 B,6 | %7
w: ||Do- vah- kiin|Do- vah- kiin|Do- vah- kiin|Do- vah- kiin||
 B,6 A,6 | F,6 B,6 | G,6 A,3 z2 D/C/ | D2 D/C/ D2 C/D/ EDC B,2 B,/A,/ | %11
w: |Do- vah-|kiin lo! * *|kiin, Do- vah- kiin, naal ok zin los vah- riin, wah _|
 B,2 B,/A,/ B,2 A,/B,/ CDA, B,2 D/C/ | DDD/E/ F2 C/D/ EDC B,2 B,/A,/ | %13
w: dein, vo- * kul mah- faer- ak _ ahst vaal! Ahrk fin|no- rok pa- al graan fod nust hon zin- dro zaan, Do- vah-|
 B,2 B,/A,/ B,2 A,/B,/ CDA, B,3 | z12 | z12 | z12 | z12 | CD z CD z z EC CD z | %19
w: kiin, fah _ hin ko- * ga- an mu draal!|||||Huz- rah nu _ kul do o- od|
 CD z CD z z EC CDC | CD z CD z z CC CCC | D6 E6 | B,3 B,3 B,3 F,3 | B,3 B,3 B,3 F,3 | %24
w: wah aan bo- ok lin- grah vo- od ahrk|Huz- rah nu _ kul do o- od *||Do- va- khiin Rah!|Do- va- khiin Rah!|
"^Talat, mörkt och dovt" D,2 D,2 D,2 D,2 D,2 D,2 | D,2 D,2 D,2 D,2 D,2 D,2 | %26
w: Wo lost fron wah ney dov|ahrk fin rey- liik do jul|
 D,2 z2 D,2 D,2 D,2 D,2 | D,2 D,2 D,2 D,2 z2 z D,/D,/ | %28
w: voth aan su- leyk wah|ro- nit faal krein Ahrk fin|
 D,2 D,/D,/ D,2 D,/D,/ D,2 D,/D,/ D,2 D,/D,/ | D,D,D, D,D,D, D,3 z2 D,/D,/ | %30
w: kel lost pro- dah do ved viing ko fin krah, to fod|zey- mah win kein meys fun- dein! Al- du-|
 D,D,D, D,2 D,/D,/ D,D,D, D,2 D,/D,/ | D,D,D, D,D,D, D,3 z3 | B,3 G,3 A,3 EDC | B,3 G,3 A,3 EDC | %34
w: in, feyn do jun, kru- ziik vo- kun staad- nau, voth aan|bah- lok wah dii- von fin lein!|||
 B,3 G,3 A,3 EDC | B,3 G,3 A,3 z B,,C, | D,4 D,E, F,4 F,A, | E,4 D,C, B,,4 B,,C, | %38
w: ||sul, fent a- lok, fod fin|vul do- vah nok, Fen kos|
 D,3 D,2 E, F,3 F,2 A, | B,6- B,4 B,C | D2 C2 B,2 A,2 G,2 F,2 | E,4 D,F, E,4 z D/C/ | %42
w: nah- lot mah- fae- raak ahrk|ruz! _ Paaz kei-|zaal fen kos stin nol bein|Al- du- in jot! * *|
 D2 D/C/ D2 C/D/ EDC B,2 B,/A,/ | B,2 B,/A,/ B,2 A,/B,/ CDA, B,2 D/C/ | %44
w: ||
 DDD/E/ F2 C/D/ EDC B,2 B,/A,/ | B,2 B,/A,/ B,2 A,/B,/ CDA, B,3 | B,3 B,3 B,3 F,3 | %47
w: ||Do- va- khiin Rah!|
 B,3 B,3 B,3 F,3 |] %48
w: Do- va- khiin Rah!|
V:5
 x12 | x12 | x12 | x12 | x12 | x12 | B,,6 E,6 | D,6 A,,6 | B,,6 E,6 | D,6 E,3 z2 D,/C,/ | %10
w: ||||||Do- vah-|kiin lo!||* * Do- vah-|
 B,,2 B,,/C,/ D,2 C,/B,,/ A,,A,,A,, B,,2 B,,/A,,/ | %11
w: |
 B,,2 B,,/A,,/ B,,2 A,,/B,,/ C,D,A,, B,,2 D,/C,/ | %12
w: |
 B,,B,,B,,/C,/ D,2 C,/B,,/ A,,A,,A,, B,,2 B,,/A,,/ | B,,2 B,,/A,,/ B,,2 A,,/B,,/ C,D,A,, B,,3 | %14
w: ||
 x12 | x12 | x12 | x12 | C,D, z C,D, z z E,C, C,D, z | C,D, z C,D, z z E,C, C,D,C, | %20
w: ||||||
 C,D, z C,D, z z C,C, C,C,C, | B,,B,, z B,,2 z z B,,B,, B,,B,,B,, | B,,3 B,,3 B,,3 F,3 | %23
w: * * * * * * * * ahrk|Huz- rah nu kul do o- od ahrk||
 B,,3 B,,3 B,,3 F,3 | x12 | x12 | x12 | x12 | x12 | x12 | x12 | x12 | B,,3 G,,3 A,,3 E,D,C, | %33
w: |||||||||Do- vah- kiin, los vah- riin|
 B,,3 G,,3 A,,3 E,D,C, | B,,3 G,,3 A,,3 E,D,C, | B,,3 G,,3 A,,3 z B,,C, | B,,4 B,,C, D,4 D,C, | %37
w: Do- vah- kiin, los vah- riin|Do- vah- kiin, los vah- riin|Do- vah- kiin Nuz an||
 A,,4 A,,A,, G,,4 G,,A,, | B,,3 B,,2 C, D,3 D,2 [D,F,] | [D,G,]6 [E,^G,]6 | %40
w: |||
 B,,2 B,,2 B,,2 D,2 D,2 D,2 | G,,4 G,,A,, A,,4 z D,/C,/ | %42
w: |* * * * Do- vah-|
 B,,2 B,,/C,/ D,2 C,/B,,/ A,,A,,A,, B,,2 B,,/A,,/ | %43
w: kiin, Do- vah- kiin, naal ok zin los vah- riin, Wah _|
 B,,2 B,,/A,,/ B,,2 A,,/B,,/ C,D,A,, B,,2 D,/C,/ | %44
w: dein, vo- * kul mah- faer- a- ak ahst vaal! Ahrk fin|
 B,,B,,B,,/C,/ D,2 C,/B,,/ A,,A,,A,, B,,2 B,,/A,,/ | B,,2 B,,/A,,/ G,,2 G,,/G,,/ F,,F,,A,, B,,3 | %46
w: no- rok pa- al graan fod nust hon zin- dro zaan Do- vah-|kiin, fah _ hin ko- * ga- an mu draal!|
 B,,3 B,,3 B,,3 F,3 | B,,3 B,,3 B,,3 F,3 |] %48
w: ||

